X:113
T:Were I a Clerk
N:"Moderate"
B:O'Neill's 113
Z:Transcribed by henrik.norbeck@mailbox.swipnet.se
M:6/8
L:1/8
K:G
B/c/|d2 e ed2 c|BAG G2 A|Bdc BAG|FGE D2 B/c/|
d2 e edB|BAG G2 A|.Bdc BA.G|FED G2||
D|FEG G2 B|BAG FE.c|BAB d2 e|edB A2 B/c/|
d2 e ed.B|BAG G2 A|Bdc BA.G|FED G2||
